src/assets/duotone/MoneySend.svg

<svg width="24" height="24" viewBox="0 0 24 24"  xmlns="http://www.w3.org/2000/svg">
<path opacity="0.4" d="M17 7.75C16.81 7.75 16.62 7.68 16.47 7.53C16.18 7.24 16.18 6.76 16.47 6.47L18.52 4.42C16.76 2.92 14.49 2 12 2C6.48 2 2 6.48 2 12C2 17.52 6.48 22 12 22C17.52 22 22 17.52 22 12C22 9.51 21.08 7.24 19.58 5.48L17.53 7.53C17.38 7.68 17.19 7.75 17 7.75Z" />
<path d="M13.75 11.82L12.75 11.47V9.25H12.83C13.34 9.25 13.75 9.7 13.75 10.25C13.75 10.66 14.09 11 14.5 11C14.91 11 15.25 10.66 15.25 10.25C15.25 8.87 14.17 7.75 12.83 7.75H12.75V7.5C12.75 7.09 12.41 6.75 12 6.75C11.59 6.75 11.25 7.09 11.25 7.5V7.75H10.95C9.74001 7.75 8.75 8.77 8.75 10.03C8.75 11.49 9.6 11.96 10.25 12.19L11.25 12.54V14.76H11.17C10.66 14.76 10.25 14.31 10.25 13.76C10.25 13.35 9.91 13.01 9.5 13.01C9.09 13.01 8.75 13.35 8.75 13.76C8.75 15.14 9.83001 16.26 11.17 16.26H11.25V16.51C11.25 16.92 11.59 17.26 12 17.26C12.41 17.26 12.75 16.92 12.75 16.51V16.26H13.05C14.26 16.26 15.25 15.24 15.25 13.98C15.25 12.51 14.4 12.04 13.75 11.82ZM10.74 10.76C10.4 10.64 10.25 10.57 10.25 10.02C10.25 9.59 10.57 9.24 10.95 9.24H11.25V10.93L10.74 10.76ZM13.05 14.75H12.75V13.06L13.26 13.24C13.6 13.36 13.75 13.43 13.75 13.98C13.75 14.4 13.43 14.75 13.05 14.75Z" />
<path d="M22.6902 1.70999C22.6102 1.52999 22.4702 1.38 22.2802 1.3C22.1902 1.26 22.0902 1.23999 21.9902 1.23999H17.9902C17.5802 1.23999 17.2402 1.57999 17.2402 1.98999C17.2402 2.39999 17.5802 2.73999 17.9902 2.73999H20.1802L18.5103 4.41C18.8903 4.74 19.2403 5.08999 19.5703 5.46999L21.2402 3.8V5.99999C21.2402 6.40999 21.5802 6.74999 21.9902 6.74999C22.4002 6.74999 22.7402 6.40999 22.7402 5.99999V1.99999C22.7502 1.89999 22.7302 1.80999 22.6902 1.70999Z" />
</svg>

<?xml version="1.0" encoding="UTF-8"?>
<svg width="24" height="24" viewBox="0 0 24 24" xmlns="http://www.w3.org/2000/svg">
 <path d="m17 7.75c-0.19 0-0.38-0.07-0.53-0.22-0.29-0.29-0.29-0.77 0-1.06l2.05-2.05c-1.76-1.5-4.03-2.42-6.52-2.42-5.52 0-10 4.48-10 10s4.48 10 10 10 10-4.48 10-10c0-2.49-0.92-4.76-2.42-6.52l-2.05 2.05c-0.15 0.15-0.34 0.22-0.53 0.22z" opacity=".4"/>
 <path d="m13.75 11.82-1-0.35v-2.22h0.08c0.51 0 0.92 0.45 0.92 1 0 0.41 0.34 0.75 0.75 0.75s0.75-0.34 0.75-0.75c0-1.38-1.08-2.5-2.42-2.5h-0.08v-0.25c0-0.41-0.34-0.75-0.75-0.75s-0.75 0.34-0.75 0.75v0.25h-0.3c-1.21 0-2.2 1.02-2.2 2.28 0 1.46 0.85 1.93 1.5 2.16l1 0.35v2.22h-0.08c-0.51 0-0.92-0.45-0.92-1 0-0.41-0.34-0.75-0.75-0.75s-0.75 0.34-0.75 0.75c0 1.38 1.08 2.5 2.42 2.5h0.08v0.25c0 0.41 0.34 0.75 0.75 0.75s0.75-0.34 0.75-0.75v-0.25h0.3c1.21 0 2.2-1.02 2.2-2.28 0-1.47-0.85-1.94-1.5-2.16zm-3.01-1.06c-0.34-0.12-0.49-0.19-0.49-0.74 0-0.43 0.32-0.78 0.7-0.78h0.3v1.69l-0.51-0.17zm2.31 3.99h-0.3v-1.69l0.51 0.18c0.34 0.12 0.49 0.19 0.49 0.74 0 0.42-0.32 0.77-0.7 0.77z"/>
 <path d="m22.69 1.71c-0.08-0.18-0.22-0.32999-0.41-0.40999-0.09-0.04-0.19-0.06001-0.29-0.06001h-4c-0.41 0-0.75 0.34-0.75 0.75s0.34 0.75 0.75 0.75h2.19l-1.6699 1.67c0.38 0.33 0.73 0.67999 1.06 1.06l1.6699-1.67v2.2c0 0.41 0.34 0.75 0.75 0.75s0.75-0.34 0.75-0.75v-4c0.01-0.1-0.01-0.19-0.05-0.29z"/>
</svg>
